X:1
T:Title
%%score [ 1 2 3 4 ]
L:1/8
Q:1/4=80
M:2/2
K:F
V:1 treble nm="CANTUS (Soprano)"
V:2 treble nm="ALTUS (Alto)"
V:3 treble-8 nm="TENOR (Tenore)"
V:4 bass nm="BASSUS (Basso)"
V:1
 z8 | z8 | d4 d4 | ^c4 d4- | d2 A2 c4 | B4 A4- | A8 | z2 FG ABcd | ef e3 d d2- | d2 ^c2 d4 | %10
w: ||Qui- a|vi- di-|* sti me,|Tho- ma,|_|cre- * * * * *||* di- di-|
 G4 z2 A2 | B2 GABG A2 | F4 G4 | z4 d4 | d4 ^c4 | d6 A2 | c4 B4 | A2 FG ABcd | ef e3 d d2- | %19
w: sti, cre-|di- di- * * * *|sti, _|qui-|a vi-|di- sti|me, Tho-|ma, cre- * * * * *||
 d2 ^c2 d3 =c | B2 A2 z2 GA | Bcde f2 ed | e2 e2 d4 | c2 f4 e2 | d3 c B2 A2 | G3 F G2 A2- | %26
w: * di- di- *|* sti, cre- *||* di- di-|sti, cre- di-|di- * * *||
 A2 G4 ^F2 | G4 d4 | _e4 d2 B2 | c2 d2 _e4 | d2 d2 c2 f2 | e2 d4 ^c2 | d4 z4 | z4 z2 d2 | %34
w: |sti, Be-|a- ti qui|non vi- de-|runt, et cre- di-|de- * *|runt,|et|
 c2 f2 e2 d2- | d2 ^c2 d4 | z8 | z8 | z4 G4 | B4 A2 F2 | G2 A2 B4 | A4 d4 | c2 f2 _e4 | d8 | z8 | %45
w: cre- di- de- *|­ * runt,|||be-|a- ti qui|non vi- de-|runt, et|cre- di- de-|runt,||
 A4 F2 B2 | A2 G4 ^F2 | GABc defd | _e2 d4 c2 | d2 A2 B4 | A2 F2 G2 A2 | B4 A4 | z2 G2 F2 B2 | %53
w: et cre- di-|de- * *|­- * * * * * * *||runt, be- a-|ti qui non vi-|de- runt,|et cre- di-|
 A2 G4 ^F2 | G4 z2 c2 | B2 _e2 d3 c/d/ | _edc=B c4 | =B16 |] %58
w: de- * *|runt, et|cre- di- de- * *||runt.|
V:2
 G4 G4 | ^F4 G4- | G2 D2 F4 | E4 D2 B,C | DEFG AB A2- | A2 G4 F2- | F2 ED E4 | F2 DEFG A2- | %8
w: Qui- a|vi- di-|* sti me,|Tho- ma, cre- *||­ di- di-||sti, cre- * * * *|
 A2 G2 GF FE/D/ | E4 D4- | D4 z4 | D8 | D4 ^C4 | D6 D2 | F4 E4 | D2 B,C DEFG | AB A3 G G2 | %17
w: * di- di- * * * *|* sti,|_|qui-|a vi-|di- sti|me, Tho-|ma, cre- * * * * *||
 F2 DEFG A2- | A2 GF GF FE/D/ | E4 D2 B,C | DEFD G2 G2 | F3 GAB c2- | cB A4 G2 | A8 | F4 z2 D2 | %25
w: di- di- * * * *||* sti, cre- *|* * * * * di-|di- * * * *||­-|sti, cre-|
 B,4 _E4 | D8- | D8 | z2 G2 B4 | A2 F2 G2 A2 | B4 A2 D2 | C2 F2 E4 | DEFD E2 D2- | D2 ^C2 D4 | z8 | %35
w: di- di-|sti,|_|Be- a-|ti qui non vi-|de- runt, et|cre- di- de-||* * runt,||
 A4 F2 B2 | A2 G3 F F2 | E2 D3 C C2- | C2 =B,2 C4 | z8 | z8 | z2 A2 B4 | A2 F2 G2 A2 | B4 A2 D2 | %44
w: et cre- di-|de- * * *||* * runt,|||be- a-|ti qui non vi-|de- runt, et|
 C2 F2 E2 D2- | D2 ^C2 DEFD | _E2 DC D4 | z2 G2 F2 B2 | AG B3 A G2- | G2 ^F2 G4 | z2 D2 _E4 | %51
w: cre- di- de- *||* * * runt,|et cre- di-|de- * * * *|* * runt,|be- a-|
 D2 B,2 C2 D2 | _E4 D4- | D4 z2 D2 | B,2 _E2 D2 C2 | G4 G2 G2 | G8 | G16 |] %58
w: ti qui non vi-|de- runt,|_ et|cre- di- de- runt,|et cre- di-|de-|runt.|
V:3
 z8 | z8 | z8 | z8 | z8 | z4 d4 | d4 ^c4 | d6 A2 | c4 B4 | A4 B4- | B2 AG A4 | z2 Bc defg | %12
w: |||||Qui-|a vi-|di- sti|me, Tho-|ma, _|_ _ _ _|cre- * * * * *|
 ab a4 g2- | g2 fe f2 f2 | d4 z2 a2- | a2 d2 f4- | f2 e2 d4 | z8 | z8 | z4 d4 | d4 ^c4 | d6 A2 | %22
w: * * * di-|* * * * di-|sti, cre-|* di- di-|* * sti,|||qui-|a vi-|di- sti|
 c4 B4 | A8 | z2 Bc defd | _e2 d2 cBAG | ^F2 G2 A4 | =B4 B4 | c4 B2 d2 | f2 d2 c4 | Bcde f3 g | %31
w: me, Tho-|ma,|cre- * * * * *|* di- di- * * *||sti, Be-|a- ti qui|non vi- de-|runt, _ _ _ _ _|
 a4 z4 | z2 d2 c2 f2 | e4 defg | ab a3 g fe/d/ | e4 d4- | d4 z4 | z8 | d4 _e4 | d2 B2 c2 d2 | %40
w: _|et cre- di-|de- * * * *||­ runt,|_||be- a-|ti qui non vi-|
 _e4 d2 g2 | f_edc Bcd=e | f2 d2 c4 | g4 z4 | z2 d2 c2 f2 | e4 d3 B | c2 B2 A4 | G4 z2 d2 | %48
w: de- runt, et|cre- * * * * * * *|* di- de-|runt,|et cre- di-|de- * *||runt, et|
 c2 BA G2 G2 | A4 G4 | z2 A2 c4 | B2 G2 A3 B | c4 A2 G2 | F2 B2 A4 | G2 c2 B2 _e2- | ed c4 =B2 | %56
w: cre- * * * di-|de- runt,|be- a-|ti qui non vi-|de- runt, et|cre- di- de-|runt, et cre- di-||
 c3 d _e4 | d16 |] %58
w: de- * *|runt.|
V:4
 z8 | z8 | z8 | z8 | z8 | z8 | z8 | z8 | z8 | z4 G,4 | G,4 ^F,4 | G,6 D,2 | F,4 E,4 | %13
w: |||||||||Qui-|a vi-|di- sti|me, Tho-|
 D,4 z2 B,,C, | D,E,F,G, A,B, A,2 | ^F,2 G,2 D,4 | z2 A,2 B,2 G,2 | D6 A,2 | C4 B,4 | A,4 B,3 A, | %20
w: ma, cre- *||di- di- sti,|qui- a vi-|di- sti|me, Tho-|ma, cre- *|
 G,2 F,2 E,4 | D,4 z4 | z8 | z2 F,G, A,B,CA, | B,3 A, G,2 F,2 | G,4 C,4 | D,8 | G,4 G,4 | C,4 G,4 | %29
w: * di- di-|sti,||cre- * * * * *|* * * di-|di- *||sti, Be-|a- ti|
 z8 | z8 | z4 A,4 | B,4 A,2 F,2 | G,2 A,2 B,4 | A,8- | A,4 z2 G,2 | F,2 B,2 A,4 | G,3 F, E,2 D,C, | %38
w: ||be-|a- ti qui|non vi- de-|runt,|_ et|cre- di- de-||
 D,4 C,2 C,2 | G,4 F,2 D,2 | C,2 C,2 G,4 | D,4 z4 | z8 | z2 G,2 F,2 B,2 | A,2 D,2 A,4- | A,4 z4 | %46
w: * runt, be-|a- ti qui|non vi- de-|runt,||et cre- di-|de- * runt,|_|
 z4 D,4 | _E,4 D,2 B,,2 | C,2 D,2 _E,4 | D,4 z2 G,2 | F,2 D,2 C,4 | G,4 F,4 | C,2 C,2 D,4 | D,8 | %54
w: be-|a- ti qui|non vi- de-|runt, et|cre- di- de-|runt, et|cre- di- de-|runt,|
 z2 C,2 G,2 C,2 | _E,3 F, G,4 | C,8 | G,16 |] %58
w: et cre- di-|de- * *|runt.|_|

